X: 37876
T: Sound Of The Sun, The
R: jig
M: 6/8
K: Dmixolydian
|:GDG ABB|d2 e dBd|c<cB cAA|F2 A FED|
GDG ABB|d2 e dBd|c2 A FDF|AGG G3:|
d3 dBd|g3 dBd|c2 B cAA|f3 fed|
d3 dBd|ggg dBd|c2 A (3FED F|AGG G2 B|
ddd dBd|ggg dBd|c2 z B2 z|AAA FED|
G3 (3BAG B|dBd g2 d|c2 A (3FED F|AGG G3:|

